MB/img/icon/step_1.svg

<svg width="35" height="35" viewBox="0 0 35 35" fill="none" xmlns="http://www.w3.org/2000/svg">
<path d="M9.96429 25.4051V3.11055H24.1011V20.3241H25.4648V1.96079C25.4648 0.882646 24.5831 0 23.504 0H10.5614C9.48232 0 8.59967 0.882646 8.59967 1.96079V27.0746C8.59967 28.1518 9.48232 29.0334 10.5614 29.0334H14.0727L12.137 25.4041L9.96429 25.4051ZM14.9621 1.41398H19.1034C19.234 1.41398 19.3395 1.51947 19.3395 1.65206C19.3395 1.78271 19.234 1.8882 19.1034 1.8882H14.9621C14.8314 1.8882 14.724 1.78271 14.724 1.65206C14.724 1.51947 14.8324 1.41398 14.9621 1.41398ZM26.3997 22.9769V22.7349C26.3997 22.1949 25.9613 21.7545 25.4183 21.7545H25.3148C24.7709 21.7545 24.3334 22.1949 24.3334 22.7339V22.9769V23.8392H23.955V22.9769V22.7339C23.955 22.1949 23.5176 21.7545 22.9756 21.7545H22.8691C22.3291 21.7545 21.8887 22.1949 21.8887 22.7339V23.8392H21.5103V22.7339C21.5103 22.1949 21.0719 21.7545 20.5309 21.7545H20.4254C19.8824 21.7545 19.445 22.1949 19.445 22.7339V22.9769V23.8392H19.1324V21.2503C21.1551 20.7267 22.661 18.9024 22.661 16.719C22.661 14.1272 20.5531 12.0202 17.9633 12.0202C15.3734 12.0202 13.2655 14.1281 13.2655 16.719C13.2655 18.9972 14.8982 20.898 17.0535 21.3238V23.8421V25.0073V27.362C16.0083 26.2481 15.3763 25.0064 14.6998 24.8515C13.8259 24.6492 13.0884 25.3209 13.6923 26.4861C14.2972 27.6504 17.191 32.7043 17.1948 32.7102C17.5781 33.6393 18.8111 35.001 21.7242 35C26.3968 35.001 26.3968 30.8316 26.3968 30.8316V24.8128C26.3968 24.8089 26.3987 24.807 26.3987 24.8031V22.9769H26.3997ZM18.1481 16.449L18.0417 16.448C17.4968 16.448 17.0555 16.8893 17.0555 17.4361V18.523C16.3944 18.1871 15.9367 17.5097 15.9367 16.7199C15.9367 15.6021 16.8464 14.6914 17.9652 14.6914C19.084 14.6914 19.9947 15.6011 19.9947 16.7199C19.9947 17.4013 19.6521 18.0033 19.1363 18.3701V17.4361C19.1353 16.8893 18.6949 16.448 18.1481 16.449ZM13.7513 16.719C13.7513 14.3953 15.6415 12.5041 17.9652 12.5041C20.2889 12.5041 22.1791 14.3953 22.1791 16.719C22.1791 18.6343 20.8861 20.235 19.1343 20.746V19.4763C20.2057 19.0185 20.9606 17.9558 20.9606 16.719C20.9606 15.0669 19.6163 13.7226 17.9642 13.7226C16.3122 13.7226 14.9679 15.0669 14.9679 16.719C14.9679 18.0507 15.8486 19.1704 17.0545 19.5585V20.8283C15.1692 20.4092 13.7513 18.7291 13.7513 16.719Z" fill="#5C9188"/>
</svg>

<svg width="35" height="35" fill="none" xmlns="http://www.w3.org/2000/svg"><path d="M9.964 25.405V3.111h14.137v17.213h1.364V1.961A1.967 1.967 0 0023.504 0H10.561A1.967 1.967 0 008.6 1.96v25.115c0 1.077.882 1.958 1.961 1.958h3.512l-1.936-3.629-2.173.001zm4.998-23.991h4.141c.131 0 .236.105.236.238 0 .13-.105.236-.236.236h-4.14a.237.237 0 110-.474zM26.4 22.977v-.242c0-.54-.439-.98-.982-.98h-.103a.98.98 0 00-.982.979v1.105h-.378v-1.105a.98.98 0 00-.98-.98h-.106c-.54 0-.98.44-.98.98v1.105h-.379v-1.105a.98.98 0 00-.98-.98h-.105a.98.98 0 00-.98.98v1.105h-.313V21.25c2.023-.523 3.529-2.348 3.529-4.531a4.703 4.703 0 00-4.698-4.699 4.704 4.704 0 00-4.698 4.699 4.704 4.704 0 003.788 4.605v6.038c-1.045-1.114-1.677-2.356-2.353-2.51-.874-.203-1.612.469-1.008 1.634.605 1.164 3.499 6.218 3.503 6.224.383.93 1.616 2.291 4.53 2.29 4.672.001 4.672-4.168 4.672-4.168v-6.02l.002-.009v-1.826zm-8.252-6.528l-.106-.001a.986.986 0 00-.987.988v1.087a2.024 2.024 0 01-1.118-1.803c0-1.118.91-2.029 2.028-2.029 1.119 0 2.03.91 2.03 2.029 0 .681-.343 1.283-.859 1.65v-.934a.986.986 0 00-.988-.987zm-4.397.27a4.22 4.22 0 014.214-4.215 4.22 4.22 0 014.214 4.215c0 1.915-1.293 3.516-3.045 4.027v-1.27a3.003 3.003 0 001.827-2.757 3 3 0 00-2.997-2.996 3 3 0 00-2.996 2.996c0 1.332.88 2.451 2.087 2.84v1.27a4.22 4.22 0 01-3.304-4.11z" fill="#4066C4"/></svg>
